!!!COM: Scriabin, Alexander
!!!OTL: Poème fantastique
!!!OPR: 3 Morceaux
!!!OPS: 45
!!!ONM: 2
!!!ODT: 1904
!!!AGN: Poème
**kern	**kern
*staff2	*staff1
*clefF4	*clefG2
*k[]	*k[]
*C:	*C:
*M3/4	*M3/4
*	*^
8BL 8f	4dd#X	12gL
.	.	12g#X
8D-XJ	.	.
.	.	[12aJ
=1	=1	=1
8FL 8B 8f	12bbL	4a] 4dd#X
.	12dd#	.
8GGGnJ 8GGn	.	.
.	12dd#J	.
4B	4dd#	4f 4a
8FL 8B	4a	12c#XL
.	.	12dn
8GGJ	.	.
.	.	12d#XJ
=2	=2	=2
2.CCn 2.GG 2.F 2.B	2.a 2.ff	12d#XL
.	.	12dn
.	.	[12d#XJ
.	.	12d#L]
.	.	12dn
.	.	[12d#XJ
.	.	12d#L]
.	.	12dn
.	.	12d#XJ
=3	=3	=3
8E 8F#X 8c 8e	8a-X 8cc 8ee 8aa-X	4rc
8r	8raa	.
4r	4raa	4rc
8F#XL 8c	4a#X	12dnL
.	.	12d#X
8AA-XJ	.	.
.	.	[12eJ
=4	=4	=4
8CL 8F#X 8c	12ff#XL	4e] 4a#X
.	12a#	.
8DDDnJ 8DDn	.	.
.	12a#J	.
4F#	4a#	4c 4e
8cL 8f#X	4ee	12g#XL
.	.	12an
8DJ	.	.
.	.	12a#XJ
=5	=5	=5
2.GGn 2.D 2.c 2.f#X	2.ee 2.ccc	12a#XL
.	.	12an
.	.	[12a#XJ
.	.	12a#L]
.	.	12an
.	.	[12a#XJ
.	.	12a#L]
.	.	12an
.	.	12a#XJ
*	*v	*v
*clefG2	*
=6	=6
4r	4r
8B 8c#X 8g 8b	8ee-X 8gg 8bb 8eee-X
8r	8r
4r	4r
=7	=7
*clefF4	*
*^	*
2.d-X	12d-L	[4a
.	12E-X	.
.	12gJ	.
.	4rEE	6a]
.	.	12b-X
.	4rEE	6a
.	.	12b-
=8	=8	=8
2d	12dnL	4g-X 4b-X [4gg-X
.	12B-X	.
.	12EJ	.
.	12CL	12gg-L]
.	12CCJ	12b-
.	12rEE	12g-J
4rc	4rEE	8B-X
.	.	8r
=9	=9	=9
*	*	*^
2.G-X	12G-L	[4d [4dd	2.g-X 2.cc
.	12AA-X	.	.
.	12cJ	.	.
.	4rEE	6d] 6dd]	.
.	.	12e-X 12ee-X	.
.	4rEE	6d 6dd	.
.	.	12e- 12ee-	.
*	*	*v	*v
=10	=10	=10
2G	12GnL	4cc-X 4ee-X [4ccc-X
.	12E-X	.
.	12FFJ	.
.	8A 8e-X 8g	12ccc-L]
.	.	12ee-
.	8rEE	.
.	.	12cc-J
4rc	4rEE	8e-X
.	.	8r
=11	=11	=11
[4g	12gL	2.b 2.ff 2.bb
.	12f	.
.	12BJ	.
6g]	8D-X	.
.	8rEE	.
12a-X	.	.
6g	4B 4f	.
12a-	.	.
=12	=12	=12
*	*	*^
2a	16anLL	4ff 4bb	6ee 6eee
.	16f	.	.
.	16B	.	.
.	.	.	12dd#X 12ddd#X
.	16FJJ	.	.
.	8GG	4ff 4bb	6ee 6eee
.	8rEE	.	.
.	.	.	12dd# 12ddd#
4rc	8BL 8f	4dd#	12gL
.	.	.	12g#X
.	8D-XJ	.	.
.	.	.	[12aJ
*v	*v	*	*
=13	=13	=13
8FL 8B 8f	12bbL	4a] 4dd#X
.	12dd#	.
8GGGnJ 8GGn	.	.
.	12dd#J	.
4B	4dd#	4f 4a
8FL 8B	4a	12c#XL
.	.	12dn
8GGJ	.	.
.	.	12d#XJ
=14	=14	=14
2.CCn 2.GG 2.F 2.B	2.a 2.ff	12d#XL
.	.	12dn
.	.	[12d#XJ
.	.	12d#L]
.	.	12dn
.	.	[12d#XJ
.	.	12d#L]
.	.	12dn
.	.	12d#XJ
=15	=15	=15
*^	*	*
4rc	4rEE	4raa	4rc
4F#X	2E 2c 2e	2cc 2ee	4a-X 4aa-X
4G	.	.	4g 4gg
*v	*v	*	*
*	*v	*v
=16	=16
2.r	2.r
==	==
*-	*-
!!!system-decoration: {(*)}
!!!ENC: Bryan Jacob Bell
!!!END: November 2021 to April 2022
!!!PED: Günter Philipp
!!!PTL: Ausgewählte Klavierwerke (Edition Peters)
